Catalina-light/actions/16/format-text-smaller-symbolic.svg

<?xml version="1.0" encoding="UTF-8" standalone="no"?>
<svg
   xmlns:dc="http://purl.org/dc/elements/1.1/"
   xmlns:cc="http://creativecommons.org/ns#"
   xmlns:rdf="http://www.w3.org/1999/02/22-rdf-syntax-ns#"
   xmlns:svg="http://www.w3.org/2000/svg"
   xmlns="http://www.w3.org/2000/svg"
   xmlns:sodipodi="http://sodipodi.sourceforge.net/DTD/sodipodi-0.dtd"
   xmlns:inkscape="http://www.inkscape.org/namespaces/inkscape"
   viewBox="0 0 16 16"
   id="svg2"
   version="1.1"
   inkscape:version="0.91 r13725"
   sodipodi:docname="format-text-smaller-symbolic.svg">
  <metadata
     id="metadata10">
    <rdf:RDF>
      <cc:Work
         rdf:about="">
        <dc:format>image/svg+xml</dc:format>
        <dc:type
           rdf:resource="http://purl.org/dc/dcmitype/StillImage" />
      </cc:Work>
    </rdf:RDF>
  </metadata>
  <sodipodi:namedview
     pagecolor="#ffffff"
     bordercolor="#666666"
     borderopacity="1"
     objecttolerance="10"
     gridtolerance="10"
     guidetolerance="10"
     inkscape:pageopacity="0"
     inkscape:pageshadow="2"
     inkscape:window-width="640"
     inkscape:window-height="480"
     id="namedview8"
     showgrid="false"
     inkscape:zoom="41.1875"
     inkscape:cx="3.6783005"
     inkscape:cy="8"
     inkscape:current-layer="svg2" />
  <defs
     id="defs3051">
    <style
       type="text/css"
       id="current-color-scheme">
      .ColorScheme-Text {
        color:#bebebe;
      }
      </style>
  </defs>
  <path
     style="color:#bebebe;fill:currentColor;fill-opacity:1;stroke:none"
     class="ColorScheme-Text"
     d="M 7.2667858,5 4.0525,14 l 1.6071428,0 0.6411831,-1.714286 3.2142858,0 L 10.159643,14 11.94759,14 8.5525,5 7.2667858,5 Z M 7.9096428,7.5714286 9.0731473,11 6.7427902,11 7.9096428,7.5714286 Z"
     id="path6"
     inkscape:connector-curvature="0" />
</svg>

<svg version="1.1" viewBox="0 0 16 16" xmlns="http://www.w3.org/2000/svg">
<defs>
<style id="current-color-scheme" type="text/css">.ColorScheme-Text {
        color:#363636;
      }</style>
</defs>
<path class="ColorScheme-Text" d="m7.2668 5-3.2143 9h1.6071l0.64118-1.7143h3.2143l0.64453 1.7143h1.7879l-3.3951-9h-1.2857zm0.64286 2.5714 1.1635 3.4286h-2.3304l1.1669-3.4286z" color="#363636" fill="#363636"/>
</svg>
